X:1
T:Title
L:1/8
Q:1/4=140
M:3/4
K:D
V:1 treble nm="Grand Piano"
V:1
 F2 A3 F | A2 F3 A | F2 A2 ^G2 | G6 | E2 G3 E | G2 E3 G | E2 A2 G2 | F6 | F2 A3 F | A2 F3 A | %10
w: ????~????~????? * *||||||||||
 F2 A2 ^G2 | G6 | E2 G3 E | F2 D3 F | E2 C3 E |[M:3/2] D8 F2 E2 | D8 C2 B,2 | G8 B2 A2 | G8 F2 E2 | %19
w: |||||||||
 c8 c2 d2 | e2 d2 c2 B2 A2 G2 | F8 F2 E2 | D8 E2 F2 | G8 B2 A2 | G8 F2 E2 | c8 c2 B2 | %26
w: |||||||
 A2 B2 A2 G2 F2 E2 | D12 |] %28
w: ||

